!!!OTL: Studentenzaertlichkeit.
!!!OTL-incipit: GOTT GRUESS SIE LIEBER HERR PAPA
!!!ARE: Europa, Mitteleuropa, Deutschland
!!!SCT: F0526A
!!!TXL: @@DE
!!!YEM: Copyright 1995, estate of Helmut Schaffrath.
**kern	**text
*ICvox	*
*M3/4	*
*k[f#]	*
*G:	*
!LO:TX:a:t=No. II. Für Vers 7 und 8.	!
{8dd/L	7._"Gott
8ccJ	.
=1	=1
2b/	grüß'
4b/	Sie,
=2	=2
(4b/	lie-
4a)	.
4b/	-ber
=3	=3
(4dd/	Herr
4cc/)	.
4cc/	Pa-
=4	=4
2cc/}	-pa!
{4b/	Hat
=5	=5
(4b/	Sie
4a)	.
4a	der
=6	=6
4a	Teu-
4g	-fel
4a	ſchon
=7	=7
(4cc/	wie-
4b/)	.
4b/	-der
=8	=8
2b/}	da?
{8dd/L	8._Wie
8ccJ	.
=9	=9
2b/	ſieht's
4b/	mit
=10	=10
(4b/	mei-
4a)	.
4b/	-nem
=11	=11
(4dd/	Wech-
4cc/)	.
4cc/	-ſel
=12	=12
2cc/}	aus?
{4b/	Was
=13	=13
(4b/	macht
4a)	.
4a	die
=14	=14
(4a	Frau
4g)	.
4a	Ma-
=15	=15
(4cc/	-ma
4b/)	.
4b/	ʒu
=16	=16
2b/}	Haus?"
==	==
!!!AGN: Studenten - Lied
!! Strophenvariante zu F0526
!!!ONB: ESAC (Essen Associative Code) Database: FINK
!!!AMT: simple triple
!!!AIN: vox
!!!EED: Helmut Schaffrath
!!!EEV: 1.0
!!!GTL: Studentenlieder
!!!source: Musikalischer Hausschatz der Deutschen. Eine Sammlung von über 1000 Liedern und Gesängen mit Singstimmen und Klavierbegleitung. Leipzig, Litterarisches Verlags-Haus.
!!!page: 324
!!!ENC: Anna Maria Matuszewska
!!!EEV: 2025/03/18
*-	*-
